X:1
T:My Shepherd Is the LORD
T:El Señor Es Mi Pastor
T:Text: Psalm 23:1-5; vers. Ricardo Villarreal, 1975; tr. Psalter Hymnal, 1987 Tune: Ricardo Villarreal, 1975; harm. Delbert Asay, 1975
T:irregular PASTOR www.hymnary.org/text/the_lord_is_my_shepherd_there_villarreal
T:My Shepherd Is the LORD El Señor Es Mi Pastor
T:This hymn is in the public domain. You may freely use this score for personal and congregational worship. If you reproduce the score, please credit Hymnary.org as the source. 
T:This hymn is in the public domain. You may freely use this score for personal and congregational worship. If you reproduce the score, please credit Hymnary.org as the source. 
Z:This hymn is in the public domain. You may freely use this score for personal and congregational worship. If you reproduce the score, please credit Hymnary.org as the source.
%%score ( 1 2 ) ( 3 4 )
L:1/8
M:4/4
K:Bb
V:1 treble nm="SOPRANO ALTO" snm="S. A."
V:2 treble 
V:3 bass nm="TENOR BASS" snm="T. B."
V:4 bass 
V:1
"^Refrain" (DD) |"^Gm" G3 B"^D7" A2 ^F2 |"^Gm" G8 | B A2 G"^D7" A ^F2 D |"^Gm" G6 |] %5
w: My _|shep- herd is the|LORD;|noth- ing in- deed shall I|want.|
w: El Se-|ñor es mi pas-|tor:|na- da me pue- de fal-|tar.|
w: |||||
w: |||||
"^F7""^1""^2""^1""^2" (FF) | (A3 A) F2 A2 |"^Bb" (B2 B4)"^D7" (DD) | (^F3 F) D2 F2 |"^Gm" (G2 G4) | %10
w: The _|Lord _ is my|shep- herd; there is|noth- * ing I|want. _|
w: The _|LORD re- stores my|soul _ and _|guides me in the|right; _|
w: El Se-|ñor es mi pas-|tor. _ ¿Qué me|pue- * de fal-|tar? _|
w: El me|guí- a\_en sus sen-|de- ros por a-|mor _ de su|nom- bre.|
"^F7" (FF) | (A3 A) F2 A2 |"^Bb" (B2 B4)"^D7" DD | (^F3 F) D2 F2 |"^Gm" (G2"^Refrain" G4) || %15
w: God _|leads me in green|pas- tures and be-|side _ qui- et|wa- ters.|
w: e- ven|though I walk near|death, _ noth- ing|e- vil shall I|fear. _|
w: En pra-|de- ras des cu-|bier- tas él me|lle- va\_a des- can-|sar. _|
w: Aun- que|cru- * ce\_a os-|cu- ras nin- gún|mal _ te- me-|ré. _|
V:2
 (DD) | D3 D D2 D2 | B,8 | D D2 D D D2 D | D6 |] (FF) | (E3 E) E2 E2 | (D2 D4) (DD) | %8
 (C3 C) C2 C2 | (C2 B,4) | (CC) | (E3 E) E2 E2 | (D2 D4) DD | (C3 C) C2 C2 | (B,2 B,4) || %15
V:3
 (DC) | B,3 B, C2 A,2 | G,8 | B, B,2 B, A, A,2 C | B,6 |] (CC) | (C3 C) A,2 F,2 | %7
 (F,2 F,4) (^F,F,) | (A,3 A,) ^F,2 D,2 | (D,2 D,4) | (F,F,) | (F,3 F,) A,2 F,2 | (F,2 F,4) ^F,F, | %13
 (A,3 A,) ^F,2 D,2 | (D,2 D,4) || %15
V:4
 (D,^F,) | G,3 G, ^F,2 D,2 | G,,8 | G, G,2 G, ^F, D,2 F, | G,6 |] (A,A,) | (F,3 F,) F,2 F,2 | %7
 (B,,2 B,,4) (D,D,) | (D,3 D,) D,2 D,2 | (G,,2 G,,4) | (A,,A,,) | (F,,3 F,,) F,2 F,2 | %12
 (B,,2 B,,4) D,D, | (D,3 D,) D,2 D,2 | (G,,2 G,,4) || %15

